!!!COM: Vivaldi, Antonio Lucio
!!!CDT: 1678/03/04-1741/08/28
!!!OPR: 12 sonatas for two violins and basso continuo
!!!OTL: Sonata in C major, op. @{OPS}, no. @{ONM} (@{SCT})
!!!OPS: 1
!!!ONM: 3
!!!OMV: 4. Sarabanda
!!!SCT: RV 61
!!!SCA: Antonio Vivaldi: Thematisch-systematisches Verzeichnis seiner Werke (Ryom-Verzeichnis)
!!!OMD: Allegro
!!!key: C
**kern	**dynam	**fb	**kern	**dynam	**kern	**dynam
*part3	*	*	*part2	*	*part1	*
*staff3	*	*	*staff2	*	*staff1	*
*ICstr&ICklav	*	*	*ICstr	*	*ICstr	*
*Icello&Icemba	*	*	*Ivioln	*	*Ivioln	*
*	*	*	*I#2	*	*I#1	*
*I"Violoncello\nContinuo	*	*	*I"Violin 2	*	*I"Violin 1	*
*I'bc	*	*	*I'v2	*	*I'v1	*
*>[A,A,B,B]	*>[A,A,B,B]	*>[A,A,B,B]	*>[A,A,B,B]	*>[A,A,B,B]	*>[A,A,B,B]	*>[A,A,B,B]
*>norep[A,B]	*>norep[A,B]	*>norep[A,B]	*>norep[A,B]	*>norep[A,B]	*>norep[A,B]	*>norep[A,B]
*>A	*>A	*>A	*>A	*>A	*>A	*>A
*clefF4	*	*	*clefG2	*	*clefG2	*
*k[]	*	*	*k[]	*	*k[]	*
*C:	*	*	*C:	*	*C:	*
*M3/8	*	*	*M3/8	*	*M3/8	*
*MM75	*	*	*MM75	*	*MM75	*
=1	=1	=1	=1	=1	=1	=1
4.r	.	.	8g/L	.	4.r	.
.	.	.	8c/	.	.	.
.	.	.	[8cc/J	.	.	.
=2	=2	=2	=2	=2	=2	=2
4.r	.	.	8cc\L]	.	8dd\L	.
.	.	.	16b\L	.	8g\	.
.	.	.	16a\J	.	.	.
.	.	.	8b\J	.	[8gg\J	.
=3	=3	=3	=3	=3	=3	=3
4.r	.	.	8a/	.	8gg\L]	.
.	.	.	[4dd\	.	16ff\L	.
.	.	.	.	.	16ee\J	.
.	.	.	.	.	8ff\J	.
=4	=4	=4	=4	=4	=4	=4
4.r	.	.	8dd\L]	.	8ee\	.
.	.	.	16cc\L	.	[4aa\	.
.	.	.	16b\J	.	.	.
.	.	.	8cc\J	.	.	.
=5	=5	=5	=5	=5	=5	=5
4.r	.	.	8b\	.	8aa\L]	.
.	.	.	[4ee\	.	16gg\L	.
.	.	.	.	.	16ff\J	.
.	.	.	.	.	8gg\J	.
=6	=6	=6	=6	=6	=6	=6
4.r	.	.	8ee\L]	.	4.ff\	.
.	.	.	16dd\L	.	.	.
.	.	.	16cc\J	.	.	.
.	.	.	[8dd\J	.	.	.
=7	=7	=7	=7	=7	=7	=7
4.r	.	.	8dd\L]	.	4.ee\	.
.	.	.	16cc\L	.	.	.
.	.	.	16b\J	.	.	.
.	.	.	[8cc\J	.	.	.
=8	=8	=8	=8	=8	=8	=8
4.r	.	.	8cc\L]	.	4.dd\	.
.	.	.	16b\L	.	.	.
.	.	.	16a\J	.	.	.
.	.	.	8b\J	.	.	.
=9	=9	=9	=9	=9	=9	=9
8.C/L	.	.	8cc\L	.	4.cc\	.
.	.	.	8gg\	.	.	.
16D/L	.	.	.	.	.	.
16E/	.	6	8gg\J	.	.	.
16C/JJ	.	.	.	.	.	.
=10	=10	=10	=10	=10	=10	=10
8.F\L	.	9	(8gg\L	.	8r	.
.	.	8	8ff\)	.	8aa\L	.
16G\L	.	.	.	.	.	.
16A\	.	.	8f\J	.	8aa\J	.
16B\JJ	.	.	.	.	.	.
!!LO:LB:g=original
=11	=11	=11	=11	=11	=11	=11
8.c\L	.	6 4	(8f/L	.	(8aa\L	.
.	.	5 3	8e/)	.	8gg\)	.
16E\L	.	.	.	.	.	.
16D\	.	.	8ee/J	.	8g\J	.
16C\JJ	.	.	.	.	.	.
=12	=12	=12	=12	=12	=12	=12
8.D/L	.	9 4	(8ee/L	.	(8g/L	.
.	.	8 3	8dd/)	.	8f/)	.
16GG/L	.	.	.	.	.	.
16AA/	.	.	8d/J	.	8ff/J	.
16BB/JJ	.	.	.	.	.	.
=13	=13	=13	=13	=13	=13	=13
8.C\L	.	9 4	(8d/L	.	(8ff/L	.
.	.	8 3	8c/)	.	8ee/)	.
16D\L	.	.	.	.	.	.
16E\	.	.	8cc/J	.	8e/J	.
16F#y\JJ	.	.	.	.	.	.
=14	=14	=14	=14	=14	=14	=14
8.G\L	.	6 4	(8cc\	.	(8e/L	.
.	.	5 3	4b\)	.	8d/)	.
16A\L	.	.	.	.	.	.
16B\	.	.	.	.	[8gg/J	.
16G\JJ	.	.	.	.	.	.
=15	=15	=15	=15	=15	=15	=15
16c\LL	.	6 5	4.a/	.	8gg\L]	.
16A\	.	.	.	.	.	.
16d\	.	#	.	.	16ff#X\L	.
16c\	.	.	.	.	16ee\J	.
16d\	.	.	.	.	8ff#y\J	.
16D\JJ	.	.	.	.	.	.
=16	=16	=16	=16	=16	=16	=16
4.GG/	.	.	4.g/	.	4.gg\	.
=17:|!|:	=17:|!|:	=17:|!|:	=17:|!|:	=17:|!|:	=17:|!|:	=17:|!|:
*>B	*>B	*>B	*>B	*>B	*>B	*>B
4.r	.	.	4.r	.	8dd\L	.
.	.	.	.	.	8g\	.
.	.	.	.	.	[8gg\J	.
=18	=18	=18	=18	=18	=18	=18
4.r	.	.	8a/L	.	8gg\L]	.
.	.	.	8d/	.	16ff#X\L	.
.	.	.	.	.	16ee\J	.
.	.	.	[8dd/J	.	8ff#y\J	.
=19	=19	=19	=19	=19	=19	=19
4.r	.	.	8dd\L]	.	8ee\	.
.	.	.	16cc\L	.	[4aa\	.
.	.	.	16b\J	.	.	.
.	.	.	8cc\J	.	.	.
=20	=20	=20	=20	=20	=20	=20
4.r	.	.	8b\	.	8aa\L]	.
.	.	.	4ee\	.	16gg\L	.
.	.	.	.	.	16ff#X\J	.
.	.	.	.	.	[8gg\J	.
=21	=21	=21	=21	=21	=21	=21
4.r	.	.	8a\L	.	8gg\L]	.
.	.	.	8dd\	.	16ff#X\L	.
.	.	.	.	.	16ee\J	.
.	.	.	8cc\J	.	8ff#y\J	.
!!LO:LB:g=original
=22	=22	=22	=22	=22	=22	=22
8.GG/L	.	.	8b\L	.	8gg\L	.
.	.	.	8dd\	.	8g\J	.
16AA/L	.	.	.	.	.	.
16BB/	.	6	8dd\J	.	8r	.
16GG/JJ	.	.	.	.	.	.
=23	=23	=23	=23	=23	=23	=23
8.C\L	.	9	(8dd/L	.	8r	.
.	.	8	8cc/)	.	8ee\L	.
16D\L	.	.	.	.	.	.
16E\	.	.	8c/J	.	8ee\J	.
16F#X\JJ	.	.	.	.	.	.
=24	=24	=24	=24	=24	=24	=24
8.G/L	.	6 4	(8c/L	.	(8ee/L	.
.	.	5 3	8B/)	.	8dd/)	.
16GG/L	.	.	.	.	.	.
16AA/	.	.	8b/J	.	8d/J	.
16BB/JJ	.	.	.	.	.	.
=25	=25	=25	=25	=25	=25	=25
8.C/L	.	9	[4.ee\	.	(8d/L	.
.	.	8	.	.	8c/)	.
16D/L	.	.	.	.	.	.
16E/	.	.	.	.	8cc/J	.
16C/JJ	.	.	.	.	.	.
=26	=26	=26	=26	=26	=26	=26
8.D\L	.	9	8ee\L]	.	[4.ff\	.
.	.	8	8dd\	.	.	.
16E\L	.	.	.	.	.	.
16F\	.	.	8dd\J	.	.	.
16D\JJ	.	.	.	.	.	.
=27	=27	=27	=27	=27	=27	=27
8.E\L	.	9	[4.gg\	.	8ff\L]	.
.	.	8	.	.	8ee\	.
16F\L	.	.	.	.	.	.
16G\	.	.	.	.	8ee\J	.
16E\JJ	.	.	.	.	.	.
=28	=28	=28	=28	=28	=28	=28
8.F\L	.	9	8gg\L]	.	[4.aa\	.
.	.	8	8ff\	.	.	.
16G\L	.	.	.	.	.	.
16A\	.	.	8ff\J	.	.	.
16B\JJ	.	.	.	.	.	.
=29	=29	=29	=29	=29	=29	=29
8.c\L	.	6 4	(8ff\	.	8aa\L]	.
.	.	5 3	4ee\)	.	8gg\	.
16E\L	.	.	.	.	.	.
16D\	.	.	.	.	8gg\J	.
16C\JJ	.	.	.	.	.	.
=30	=30	=30	=30	=30	=30	=30
8.D/L	.	9 4	(8ee\	.	(8gg\	.
.	.	8 3	4dd\)	.	4ff\)	.
16GG/L	.	.	.	.	.	.
16AA/	.	.	.	.	.	.
16BB/JJ	.	.	.	.	.	.
=31	=31	=31	=31	=31	=31	=31
8.C\L	.	9 4	(8dd\	.	(8ff\	.
.	.	8 3	4cc\)	.	4ee\)	.
16D\L	.	.	.	.	.	.
16E\	.	6	.	.	.	.
16F\JJ	.	.	.	.	.	.
=32	=32	=32	=32	=32	=32	=32
8.G\L	.	5 4	(8cc\L	.	8dd\L	.
.	.	X 3	8b\)	.	(8g\	.
16F\L	.	.	.	.	.	.
16E\	.	6	8ee\J	.	8cc\J)	.
16C\JJ	.	.	.	.	.	.
!!LO:LB:g=original
=33	=33	=33	=33	=33	=33	=33
8.F\L	.	5	(8a\L	.	8cc\L	.
.	.	.	8cc\)	.	(8a\	.
16E\L	.	.	.	.	.	.
16F\	.	6	8ff\J	.	8dd\J)	.
16D\JJ	.	.	.	.	.	.
=34	=34	=34	=34	=34	=34	=34
8.G\L	.	5	(8b\L	.	8dd\L	.
.	.	.	8dd\)	.	(8b\	.
16F\L	.	.	.	.	.	.
16G\	.	6	8gg\J	.	8ee\J)	.
16E\JJ	.	.	.	.	.	.
=35	=35	=35	=35	=35	=35	=35
8.A\L	.	5	(8cc\L	.	8ee\L	.
.	.	.	8ee\)	.	(8cc\	.
16G\L	.	.	.	.	.	.
16A\	.	6	8aa\J	.	8ff\J)	.
16F\JJ	.	.	.	.	.	.
=36	=36	=36	=36	=36	=36	=36
8.G\L	.	.	8.dd\L	.	(8b\L	.
.	.	.	.	.	8g\)	.
16F\L	.	.	16b\k	.	.	.
16E\	.	6	[8cc\J	.	[8ee\J	.
16C\JJ	.	.	.	.	.	.
=37	=37	=37	=37	=37	=37	=37
16F\LL	.	7 5	16cc\LL]	.	16ee\LL]	.
16D\	.	.	16dd\J	.	16ff\J	.
16G\	.	.	8.b\	.	8.dd\	.
16F\	.	.	.	.	.	.
16G\	.	.	.	.	.	.
16GG\JJ	.	.	16cc\Jk	.	16cc\Jk	.
=38	=38	=38	=38	=38	=38	=38
8.C/L	p	.	4cc\	.	(8cc/L	.
.	.	.	.	.	8g/)	.
16D/L	.	.	.	.	.	.
16E/	.	.	8r	.	8cc/J	p
16C/JJ	.	.	.	.	.	.
=39	=39	=39	=39	=39	=39	=39
8.F\L	.	5	8r	.	(8cc\L	.
.	.	.	8cc\L	p	8a\)	.
16E\L	.	.	.	.	.	.
16F\	.	6	8ff\J	.	8dd\J	.
16D\JJ	.	.	.	.	.	.
=40	=40	=40	=40	=40	=40	=40
8.G\L	.	5	(8b\L	.	8r	.
.	.	.	8dd\)	.	8b\L	.
16F\L	.	.	.	.	.	.
16G\	.	6	8gg\J	.	8ee\J	.
16E\JJ	.	.	.	.	.	.
=41	=41	=41	=41	=41	=41	=41
8.A\L	.	5	8r	.	(8ee\L	.
.	.	.	8ee\L	.	8cc\)	.
16G\L	.	.	.	.	.	.
16A\	.	6	8aa\J	.	8ff\J	.
16F\JJ	.	.	.	.	.	.
=42	=42	=42	=42	=42	=42	=42
8.G\L	.	.	8.dd\L	.	(8b\L	.
.	.	.	.	.	8g\)	.
16F\L	.	.	16b\k	.	.	.
16E\	.	6	[8cc\J	.	[8ee\J	.
16C\JJ	.	.	.	.	.	.
=43	=43	=43	=43	=43	=43	=43
16F\LL	.	7 5	16cc\LL]	.	16ee\LL]	.
16D\	.	.	16dd\J	.	16ff\J	.
16G\	.	.	8.b\	.	8.dd\T	.
16F\	.	.	.	.	.	.
16G\	.	.	.	.	.	.
16GG\JJ	.	.	16cc\Jk	.	16cc\Jk	.
=44	=44	=44	=44	=44	=44	=44
4.C/;	.	.	4.cc\;	.	4.cc\;	.
.	.	.	.	.	.	.
=:|!	=:|!	=:|!	=:|!	=:|!	=:|!	=:|!
*-	*-	*-	*-	*-	*-	*-
!!!SMS: RV 61 / Estienne Roger (No. 363), Amsterdam [facs.]
!!!ENC: Fran Bennion   rev. 05/12/21 E Correia
!!!END: 2004/10/01
!!!ONB: Converted from MuseData with musedata2hum on Sat May 11 12:01:54 2024
!!!YEM: (C) 2004, 2019 Center for Computer Assisted Research in the Humanities
!!!system-decoration: [(s1,s2,s3)]
!!!URL-info: https://wiki.ccarh.org/wiki/MuseData:_Antonio_Vivaldi#Op._1:_Suonate_da_camera_a_tr.C3.A8.2C_due_violini_e_violone_o_cembalo Information about Vivaldi Op. 1 on the CCARH wiki
!!!URL-pdf: https://pdf.musedata.org/vivaldi-op01-no03.pdf#page=1 MuseData edition
!!!URL-pdf: https://s9.imslp.org/files/imglnks/usimg/1/18/IMSLP280399-PMLP10351-Vivaldi_Sonatas_Op_1_-_Violino_Primo.pdf#page=6 Violino primo part, Amsterdam: Estienne Roger, n.d.(ca.1723). Plate 363.
!!!URL-pdf: https://s9.imslp.org/files/imglnks/usimg/d/d5/IMSLP280400-PMLP10351-Vivaldi_Sonatas_Op_1_-_Violino_Secondo.pdf#page=6 Violino secondo part, Amsterdam: Estienne Roger, n.d.(ca.1723). Plate 363.
!!!URL-pdf: https://s9.imslp.org/files/imglnks/usimg/8/89/IMSLP280401-PMLP10351-Vivaldi_Sonatas_Op_1_-_Organo_e_Violoncello.pdf#page=6 Organo e Violoncello parts, Amsterdam: Estienne Roger, n.d.(ca.1723). Plate 363.
!!!URL-youtube: https://www.youtube.com/watch?v=P5HHPe_W6Uo&t=3767s L'Arte dell'Arco
!!!title: @{OTL}, mov. @{OMV}
!!!filter-vcross: vcross
!!!EEV: 2024/05/11
!!!source-file: https://bitbucket.org/musedata/vivaldi/src/master/roger/op1/no03/stage2/04/01
!!!source-file: https://bitbucket.org/musedata/vivaldi/src/master/roger/op1/no03/stage2/04/02
!!!source-file: https://bitbucket.org/musedata/vivaldi/src/master/roger/op1/no03/stage2/04/03
!!!source-file: https://bitbucket.org/musedata/vivaldi/src/master/roger/op1/no03/stage2/04/04
